X:1
T:20 Mélodies
T:Coucher de soleil
T:19. Coucher de soleil
T:20 Mélodies 
T:Augusta Holmès
T:(Holmès)
T:OpenScore (CC0)
T:OpenScore (CC0)
T:OpenScore (CC0)
T:OpenScore (CC0)
T:OpenScore (CC0)
C:Holmès, Augusta Mary Anne
Z:OpenScore (CC0)
%%score 1 { 2 | ( 3 4 ) }
L:1/8
Q:1/4=108
M:4/4
K:E
V:1 treble nm="Chant\nVoice"
V:2 treble nm="Piano"
V:3 bass 
V:4 bass 
V:1
 z8 | z8 | G2 G3/2 G/ G3/2 G/ G3/2 G/ | (G4 E2) E A | G E B,4 C F | E8 | %6
w: ||Rap- pel- le- toi le soir d'au-|\- tom- ne Où les|airs é- taient em- bau-|més,  |
 G2 G3/2 G/ G3/2 G/ G3/2 G/ | ((e2 d2) G) G G c | (B2 B,4) F3/2 F/ | G8 |!pp! _A2 A3/2 A/ A4 | %11
w: Rap- pel- le- toi le soir d'au-|tom- * ne Où nous nous|som- mes tant ai-|més!  |Seuls sous l'a- zur|
 F2 F3/2 F/ F2 C2 | E2!pp!!<(! E3/2 E/ E3/2 E/ E3/2!mf! E/!<)! | B8 || %14
w: plein de mys- tè- re|Nos cœurs bat- taient à se bri-|\- ser,   |
[M:12/8]!<(! B2 B B3-!<)!!f! B3!>(! B2 (B!>)! |!mf! =D3-) D2 A A2 A B2 A | (A6 B,3-) B,2 B, | %17
w: Le so- leil   _ s'é- tei-|gnait   _ et les cieux et la|ter- re   _ Sem-|
"^cresc." G6- G2 G F2 E |!ff! (e3 B6) B,3 | C3 E3 D3 F3 | E12 | z12 | z12 | z12 || %24
w: blaient   _ se ré- u-|nir    _ en|un pro- fond bai-|ser!  ||||
[M:4/4]"^1º Tempo." z8 |!p! G2 G3/2 G/ G3/2 G/ G3/2 G/ | B4 E2 E A | G E B,4 C F | E8 | %29
w: |Nous en- ten- dions fré- mir la|plai- ne, Fris- son-|ner les bois et les|champs.  |
 G2 G3/2 G/ G3/2 G/ G3/2 G/ | (e2 d2 G) z G c | (B2 B,3) E F3/2 F/ | G6- G3/2 G/ | %33
w: Nous en- ten- dions fré- mir la|plai- * ne Au mur-|mu- re de nos vingt|ans! _ Heu-|
 _A2 A3/2 A/ A2 z2 | F3/2 F/ F4 C z | E3/2 E/ E2 E E E3/2 E/ |!<(! B8!<)! || %37
w: \- reux,- ou- bli- és,|loin du mon- de,|Nous rê- vions sous l'im- men- si-|té|
[M:12/8] B6 (2:3:2B B (2:3:2B3/2 B/ | =D3- D2 A A2 A B2 A | (A6 B,3-) B,"^cresc." z B, | %40
w: Ah! Pour un seul che-|veu   _ de cet- te tê- te|blon- de   _ J'au-|
 G6- G2 G F2 E | (e3 B6) B,3 | C3 E3 D3 F3 | E12 | z12 | z12 |[Q:1/4=104] z12[Q:1/4=100] | %47
w: \- rais   _ don- né ma|part   _ de|l'im- mor- ta- li-|\- té! ||||
 z12[Q:1/4=98][Q:1/4=96] | z12 |] %49
w: ||
V:2
!p! z!<(! ([Beg]2 [^Beg]2!<)!!mf!!>(! [ceg]2 [=ceg])!>)! | %1
 z!p!!<(! ([Beg]2 [^Beg]2!<)!!mf!!>(! [ceg]2 [=ceg])!>)! | %2
 z!p!!<(! ([Beg]2 [^Beg]2!<)!!mf!!>(! [ceg]2 [=ceg])!>)! | %3
 [Beg]!>(! [ege']2 [egd']2!>)!!p! [egc']2 [egb]- | %4
 [egb]!mp!!>(! [gbg']2 [gbf']2 [gbe']2 [abd']!>)! | %5
!p! [gbe']!<(! ([Beg]2 [^Beg]2!<)!!mf!!>(! [ceg]2 [=ceg])!>)! | z [dfc']2 [df^b]2 [dfa]2 [dfg] | %7
 [eg] [gg']2 [gf']2 [ge']2 [eae'] | [ege'] [bb']2 [bg']2 [ge']2 [ad'] | %9
 [ge'] [bb']2 [bg']2 [gf']2 [ge'] |!pp! z [_g=c'=f']2 [gc'_e']2 [gc'f']2 [gc'e'] | %11
 z!8va(! ([=e^a^d']2 [eac']2 [ead']2 [eac']) | z ([=dgc']2 [dgb]2 [dgc']2 [dgb]) | %13
"_cresc." z !^![^dac']2 [dab]2 !^![fae']2 [fad']!8va)! || %14
[M:12/8]!mf! [g=d'f'][gd'f'][gd'f'] [gd'f'][gd'f'][gd'f'] [gd'e'][gd'e'][gd'e'] [gd'e'][gd'e'][gd'e'] | %15
 [f=c'e'][fc'e'][fc'e'] [fc'e'][fc'e'][fc'e'] [fc'=d'][fc'd'][fc'd'] [fc'd'][fc'd'][fc'd'] | %16
"_cresc." [^dac'][dac'][dac'] [dab][dab][dab] [fae'][fae'][fae'] [fad'][fad'][fad'] | %17
"_cresc." [ege'][ege'][ege'] [egd'][egd'][egd'] [egc'][egc'][egc'] [egb][egb][egb] | %18
!ff! [gbg'][gbg'][gbg'] [gbf'][gbf'][gbf'] [gbe'][gbe'][gbe'] [ge'g'][ge'g'][ge'g'] | %19
 [ae'f'a'][ae'f'a'][ae'f'a'] [ac'a'][ac'a'][ac'a'] [af'a'][af'a'][af'a'] [ad'a'][ad'a'][ad'a'] | %20
!f! ([gg']6 [ff']3 (2:3:2([ee'][=d=d']) | ([Ff]3) (2:3:2[Gg][cc'] [Bb]6) | ([Aa]6 [Gg]3 [Ff]2 A | %23
!>(! [Gg]3 [Ff]6-)!>)! [Ff]3 || %24
[M:4/4]"^1º Tempo."!p! [GBe]!<(! ([Beg]2 [^Beg]2!<)!!mf!!>(! [ceg]2 [=ceg])!>)! | %25
!p! z!<(! ([Beg]2 [^Beg]2!<)!!mf!!>(! [ceg]2 [=ceg])!>)! | %26
!p! [Beg] [ege']2 [egd']2 [egc']2 [egb]- | [egb] [gbg']2 [gbf']2 [gbe']2 [abd'] | %28
 [gbe']!<(! ([Beg]2 [^Beg]2!<)!!mf!!>(! [ceg]2 [=ceg])!>)! |!p! z [dfc']2 [df^b]2 [dfa]2 [dfg] | %30
 [eg] [gg']2 [gf']2 [ge']2 [eae'] | [ege'] [bb']2 [bg']2 [ge']2 [ad'] | %32
 [ge'] [bb']2 [bg']2 [gf']2 [ge'] | z ([_g=c'=f']2 [gc'_e']2 [gc'f']2 [gc'e']) | %34
 z ([=e^a^d']2 [eac']2 [ead']2 [eac']) | z ([=dgc']2 [dgb]2 [dgc']2 [dgb]) | %36
!<(! z !^![^dac']2 [dab]2 !^![fae']2 [fad']!<)! || %37
[M:12/8]!mf! [g=d'f'][gd'f'][gd'f'] [gd'f'][gd'f'][gd'f'] [gd'e'][gd'e'][gd'e'] [gd'e'][gd'e'][gd'e'] | %38
 [f=c'e'][fc'e'][fc'e'] [fc'e'][fc'e'][fc'e'] [fc'=d'][fc'd'][fc'd'] [fc'd'][fc'd'][fc'd'] | %39
 [^dac'][dac'][dac'] [dab][dab][dab] [fae'][fae'][fae'] [fad'][fad'][fad'] | %40
 [ege'][ege'][ege'] [egd'][egd'][egd'] [egc'][egc'][egc'] [egb][egb][egb] | %41
 [gbg'][gbg'][gbg'] [gbf'][gbf'][gbf'] [gbe'][gbe'][gbe'] [ge'g'][ge'g'][ge'g'] | %42
 [ae'f'a'][ae'f'a'][ae'f'a'] [ac'a'][ac'a'][ac'a'] [af'a'][af'a'][af'a'] [ad'a'][ad'a'][ad'a'] | %43
!f! ([gg']6 [ff']3 (2:3:2[ee'][=d=d'] | [Ff]3 (2:3:2[Gg][cc'] [Bb]6) | ([Aa]6 [Gg]3 [Ff]2 A | %46
"_rall." [Gg]3!>(! [Ff]6-)!>)! [Ff]3 | %47
!p!"_rall." [GBe] [GB][GB]- (2:3:2[GB][GB]- [GB][GB][GB]- (2:3:2[GB][GB]- | %48
 [GB]!pp![GB][GB]- (2:3:2[GB][GB]- [GB]3- [GB]2 !fermata!z |] %49
V:3
 z[K:treble] ([B,EG]2 [^B,EG]2 [CEG]2 [=CEG]) | %1
[K:bass] z[K:treble] ([B,EG]2 [^B,EG]2 [CEG]2 [=CEG]) | %2
[K:bass] z[K:treble] ([B,EG]2 [^B,EG]2 [CEG]2 [=CEG]) | %3
[K:bass] z[K:treble] [B,EG]2 [B,EG]2 [B,EG]2 [B,EG] | %4
[K:bass] z[K:treble] [B,EG]2 [B,EG]2 [B,EG]2 [B,DA] | %5
[K:bass] z[K:treble] ([B,EG]2 [^B,EG]2 [CEG]2 [=CEG]) | %6
[K:bass] z[K:treble] [DGc]2 [DG^B]2 [DGc]2 [DGB] |[K:bass] z[K:treble] [Gce]2 [G^Bf]2 [Gce]2 [Ac] | %8
[K:bass] z[K:treble] [B,EG]2 [B,EG]2 [B,EG]2 [B,DA] | %9
[K:bass] z[K:treble] [B,EG]2 [B,EG]2 [B,EG]2 [B,EG] | %10
[K:bass] z[K:treble] [DG=c]2 [DGc]2 [DGc]2 [DGc] | %11
[K:bass] z[K:treble] ([CF^A]2 [CFA]2 [CFA]2 [CFA]) | %12
[K:bass] z[K:treble] ([B,EG]2 [B,EG]2 [B,EG]2 [B,EG]) | %13
[K:bass] z[K:treble] [B,FA]2 [B,FA]2 [B,FA]2 [B,FA] || %14
[M:12/8][K:bass] z[K:treble] [B,EG][B,EG] [B,EG][B,EG][B,EG] [B,EG][B,EG][B,EG] [B,EG][B,EG][B,EG] | %15
[K:bass] z[K:treble] [A,=DF][A,DF] [A,DF][A,DF][A,DF] [A,DF][A,DF][A,DF] [A,DF][A,DF][A,DF] | %16
[K:bass] z[K:treble] [B,FA][B,FA] [B,FA][B,FA][B,FA] [B,FA][B,FA][B,FA] [B,FA][B,FA][B,FA] | %17
[K:bass] z[K:treble] [B,EG][B,EG] [B,EG][B,EG][B,EG] [B,EG][B,EG][B,EG] [B,EG][B,EG][B,EG] | %18
[K:bass] z[K:treble] [B,EG][B,EG] [B,EG][B,EG][B,EG] [B,EG][B,EG][B,EG] [B,EG][B,EG][B,EG] | %19
[K:bass] z[K:treble] [B,FA][B,FA] [B,FA][B,FA][B,FA] [B,FA][B,FA][B,FA] [B,FA][B,FA][B,FA] | %20
[K:bass] z[K:treble] [B,=DEG][B,DEG] [B,DEG][B,DEG][B,DEG] [B,DEG][B,DEG][B,DEG] [B,DEG][B,DEG][B,DEG] | %21
 [B,=DE][B,DE][B,DE] [B,DE][B,DE][B,DE] [B,DE][B,DE][B,DE] [B,DE][B,DE][B,DE] | %22
[K:bass] z[K:treble] [CE][CE] [CE][CE][CE] [CE][CE][CE] [CE][CE][CE] | %23
 [=CE][CE][CE] [CE][CE][CE] z [CE][CE]- (2:3:2[CE][CE] || %24
[M:4/4][K:bass] z[K:treble] ([B,EG]2 [^B,EG]2 [CEG]2 [=CEG]) | %25
[K:bass] z[K:treble] ([B,EG]2 [^B,EG]2 [CEG]2 [=CEG]) | %26
[K:bass] z[K:treble] [B,EG]2 [B,EG]2 [B,EG]2 [B,EG] | %27
[K:bass] z[K:treble] [B,EG]2 [B,EG]2 [B,EG]2 [B,DA] | %28
[K:bass] z[K:treble] ([B,EG]2 [^B,EG]2 [CEG]2 [=CEG]) | %29
[K:bass] z[K:treble] [DGc]2 [DG^B]2 [DGc]2 [DGB] |[K:bass] z[K:treble] [Gce]2 [G^Bf]2 [Gce]2 [Ac] | %31
[K:bass] z[K:treble] [B,EG]2 [B,EG]2 [B,EG]2 [B,DA] | %32
[K:bass] z[K:treble] [B,EG]2 [B,EG]2 [B,EG]2 [B,EG] | %33
[K:bass] z[K:treble] ([_E_A=c]2 [EAc]2 [EAc]2 [EAc]) | %34
[K:bass] z[K:treble] ([CF^A]2 [CFA]2 [CFA]2 [CFA]) | %35
[K:bass] z[K:treble] ([B,EG]2 [B,EG]2 [B,EG]2 [B,EG]) | %36
[K:bass] z[K:treble] [B,FA]2 [B,FA]2 [B,FA]2 [B,FA] || %37
[M:12/8][K:bass] z[K:treble] [B,EG][B,EG] [B,EG][B,EG][B,EG] [B,EG][B,EG][B,EG] [B,EG][B,EG][B,EG] | %38
[K:bass] z[K:treble] [A,=DF][A,DF] [A,DF][A,DF][A,DF] [A,DF][A,DF][A,DF] [A,DF][A,DF][A,DF] | %39
[K:bass] z[K:treble] [B,FA][B,FA] [B,FA][B,FA][B,FA] [B,FA][B,FA][B,FA] [B,FA][B,FA][B,FA] | %40
[K:bass] z[K:treble] [B,EG][B,EG] [B,EG][B,EG][B,EG] [B,EG][B,EG][B,EG] [B,EG][B,EG][B,EG] | %41
[K:bass] z[K:treble] [B,EG][B,EG] [B,EG][B,EG][B,EG] [B,EG][B,EG][B,EG] [B,EG][B,EG][B,EG] | %42
[K:bass] z[K:treble] [B,FA][B,FA] [B,FA][B,FA][B,FA] [B,FA][B,FA][B,FA] [B,FA][B,FA][B,FA] | %43
[K:bass] z[K:treble] [B,=DEG][B,DEG] [B,DEG][B,DEG][B,DEG] [B,DEG][B,DEG][B,DEG] [B,DEG][B,DEG][B,DEG] | %44
 [B,D=E][B,DE][B,DE] [B,DE][B,DE][B,DE] [B,DE][B,DE][B,DE] [B,DE][B,DE][B,DE] | %45
[K:bass] z[K:treble] [CE][CE] [CE][CE][CE] [CE][CE][CE] [CE][CE][CE] | %46
 [=CE][CE][CE]- [CE][CE][CE] z [CE][CE]- (2:3:2[CE][CE] |[K:bass] ([E,,E,]6 [B,,B,]3 [G,,G,]3 | %48
 [F,,F,]6 !fermata![E,,E,]6) |] %49
V:4
 E,,8[K:treble] |[K:bass] E,,8[K:treble] |[K:bass] E,,8[K:treble] |[K:bass] E,,8[K:treble] | %4
[K:bass] B,,,8[K:treble] |[K:bass] E,,8[K:treble] |[K:bass] G,,8[K:treble] | %7
[K:bass] G,,8[K:treble] |[K:bass] B,,,8[K:treble] |[K:bass] E,,8[K:treble] | %10
[K:bass] [_A,,_A,]8[K:treble] |[K:bass] [F,,F,]8[K:treble] |[K:bass] [E,,E,]8[K:treble] | %13
[K:bass] [B,,,B,,]8[K:treble] ||[M:12/8][K:bass] [E,,E,]12[K:treble] | %15
[K:bass] [=D,,=D,]12[K:treble] |[K:bass] [B,,,B,,]12[K:treble] |[K:bass] [B,,,B,,]12[K:treble] | %18
[K:bass] [B,,,B,,]12[K:treble] |[K:bass] [B,,,B,,]12[K:treble] |[K:bass] [E,,E,]12[K:treble] | %21
 x12 |[K:bass] [E,,E,]12[K:treble] | x12 ||[M:4/4][K:bass] [E,,E,]8[K:treble] | %25
[K:bass] E,,8[K:treble] |[K:bass] E,,8[K:treble] |[K:bass] B,,,8[K:treble] | %28
[K:bass] E,,8[K:treble] |[K:bass] G,,8[K:treble] |[K:bass] G,,8[K:treble] | %31
[K:bass] B,,,8[K:treble] |[K:bass] E,,8[K:treble] |[K:bass] [_A,,_A,]8[K:treble] | %34
[K:bass] [F,,F,]8[K:treble] |[K:bass] [E,,E,]8[K:treble] |[K:bass] [B,,,B,,]8[K:treble] || %37
[M:12/8][K:bass] [E,,E,]12[K:treble] |[K:bass] [=D,,=D,]12[K:treble] | %39
[K:bass] [B,,,B,,]12[K:treble] |[K:bass] [B,,,B,,]12[K:treble] |[K:bass] [B,,,B,,]12[K:treble] | %42
[K:bass] [B,,,B,,]12[K:treble] |[K:bass] [E,,E,]12[K:treble] | x12 |[K:bass] [E,,E,]12[K:treble] | %46
 x12 |[K:bass] x12 | x12 |] %49

